X: 22452
T: Lads Of Laois, The
R: reel
M: 4/4
K: Eminor
"Em"EB,~B,2 EGFE|"D"DA,~A,2 DEFD|"C"E2FD EFGA|"D"B2e^c dBAF|
"Em" EB,~B,2 EGFE|"D"DA,~A,2 DEFD|"C"E2BE dEBE|1 "D"DEFA BEED:|2 "D" DEFA BE~E2||
|:"Em" eB~B2 egfe|"Bm"defa gfed|(3Bcd ef "C" gfea|
"D"afdf "Em"gfed|eB~B2 "D"GB"Bm"FB|"Em"EBBA (3Bcd ef|
[1"G"~g3e "D"~f3d|"Em" efed "Bm"BAFA:|2 "G"gbge "D" fbfd|"Em"efed "Bm"BAFD||

